Adwaita++-Light/panel/16/org.sparkleshare.SparkleShare-syncing-error.svg

<svg height="16" width="16" xmlns="http://www.w3.org/2000/svg">
  <path d="m1 1s-1 .0136719-1 1.0136719v10.9863281s.00000004 1 1 1h7.7441406a4.5 4.5 0 0 1 -.7304687-2.146484l-1.0136719-.660157-1.5136719.988282c-.6256851.409757-1.4516635-.151561-1.2304687-.835938l.5351562-1.736328-1.4707031-1.2421875c-.6093771-.4313652-.2930228-1.3402989.4707031-1.3535156l1.84375-.0351563.6054688-1.671875c.1157123-.3125586.4360691-.5177033.7890625-.5058594.3311949.0118001.6219198.2125696.7304687.5058594l.6054688 1.671875 1.8457036.0351563c.286109.0054596.509573.1377919.644531.3222656a4.5 4.5 0 0 1 1.644531-.3105469 4.5 4.5 0 0 1 1.5.2636719v-3.2382813c0-1.0000001-1-1.0507812-1-1.0507812h-5l-2-2zm5.9902344 4.5839844-.6054688 1.671875c-.1142194.3081788-.4057746.5150056-.734375.5214844l-1.7324218.0332031 1.3359374 1.1484375c.2848361.2020685.4061542.5661054.2988282.8984375l-.5097656 1.6542971c.00368-.0019.0007386.0033.0058593 0l1.515625-.988281c.2653204-.172844.6077264-.172844.8730469 0l.609375.398437a4.5 4.5 0 0 1 .3671875-1.2714844c-.0127632-.267861.10575-.5308818.3320313-.6914062l.1699218-.1464844a4.5 4.5 0 0 1 1.0546875-1.0039062l-1.6191406-.03125c-.3291752-.0058696-.621902-.212782-.7363281-.5214844l-.6035156-1.671875h-.0019532c.00993.026994.0108315.017865-.0078125.015625-.01844.0018-.0217847.011569-.0117187-.015625z" fill="#444"/>
  <path d="m12.5 8c-1.932963 0-3.5 1.567036-3.5 3.5 0 1.932962 1.567037 3.5 3.5 3.5s3.5-1.567038 3.5-3.5c0-1.932964-1.567037-3.5-3.5-3.5zm-.5 1h1v3h-1zm.5 4a.5.5 0 0 1 .5.5.5.5 0 0 1 -.5.5.5.5 0 0 1 -.5-.5.5.5 0 0 1 .5-.5z" fill="#4285f4"/>
</svg>

<svg xmlns="http://www.w3.org/2000/svg" width="16" height="16" version="1.1">
 <defs>
  <style id="current-color-scheme" type="text/css">
   .ColorScheme-Text { color:#444444; } .ColorScheme-Highlight { color:#4285f4; }
  </style>
 </defs>
 <path style="fill:currentColor" class="ColorScheme-Text" d="M 1 1 C 1 1 0 1.0136719 0 2.0136719 L 0 13 C 0 13 4e-08 14 1 14 L 8.7441406 14 A 4.5 4.5 0 0 1 8.0136719 11.853516 L 7 11.193359 L 5.4863281 12.181641 C 4.860643 12.591398 4.0346646 12.03008 4.2558594 11.345703 L 4.7910156 9.609375 L 3.3203125 8.3671875 C 2.7109354 7.9358223 3.0272897 7.0268886 3.7910156 7.0136719 L 5.6347656 6.9785156 L 6.2402344 5.3066406 C 6.3559467 4.994082 6.6763035 4.7889373 7.0292969 4.8007812 C 7.3604918 4.8125813 7.6512167 5.0133508 7.7597656 5.3066406 L 8.3652344 6.9785156 L 10.210938 7.0136719 C 10.497047 7.0191315 10.720511 7.1514638 10.855469 7.3359375 A 4.5 4.5 0 0 1 12.5 7.0253906 A 4.5 4.5 0 0 1 14 7.2890625 L 14 4.0507812 C 14 3.0507811 13 3 13 3 L 8 3 L 6 1 L 1 1 z M 6.9902344 5.5839844 L 6.3847656 7.2558594 C 6.2705462 7.5640382 5.978991 7.770865 5.6503906 7.7773438 L 3.9179688 7.8105469 L 5.2539062 8.9589844 C 5.5387423 9.1610529 5.6600604 9.5250898 5.5527344 9.8574219 L 5.0429688 11.511719 C 5.0466488 11.509819 5.0437074 11.515019 5.0488281 11.511719 L 6.5644531 10.523438 C 6.8297735 10.350594 7.1721795 10.350594 7.4375 10.523438 L 8.046875 10.921875 A 4.5 4.5 0 0 1 8.4140625 9.6503906 C 8.4012993 9.3825296 8.5198125 9.1195088 8.7460938 8.9589844 L 8.9160156 8.8125 A 4.5 4.5 0 0 1 9.9707031 7.8085938 L 8.3515625 7.7773438 C 8.0223873 7.7714742 7.7296605 7.5645618 7.6152344 7.2558594 L 7.0117188 5.5839844 L 7.0097656 5.5839844 C 7.0196956 5.6109784 7.0205971 5.6018494 7.0019531 5.5996094 C 6.9835131 5.6014094 6.9801684 5.6111784 6.9902344 5.5839844 z"/>
 <path style="fill:currentColor" class="ColorScheme-Highlight" d="M 12.5 8 C 10.567037 8 9 9.567036 9 11.5 C 9 13.432962 10.567037 15 12.5 15 C 14.432963 15 16 13.432962 16 11.5 C 16 9.567036 14.432963 8 12.5 8 z M 12 9 L 13 9 L 13 12 L 12 12 L 12 9 z M 12.5 13 A 0.5 0.5 0 0 1 13 13.5 A 0.5 0.5 0 0 1 12.5 14 A 0.5 0.5 0 0 1 12 13.5 A 0.5 0.5 0 0 1 12.5 13 z"/>
</svg>
